;FLAVOR:Marlin
;TIME:6813
;Filament used: 5.27228m
;Layer height: 0.3
;MINX:69
;MINY:64
;MINZ:0.28
;MAXX:151
;MAXY:156
;MAXZ:29.98
;Generated with Cura_SteamEngine 4.4.1
M140 S60
M105
M190 S60
M104 S200
M105
M109 S200
M82 ;absolute extrusion mode
M201 X500.00 Y500.00 Z100.00 E5000.00 ;Setup machine max acceleration
M203 X500.00 Y500.00 Z10.00 E50.00 ;Setup machine max feedrate
M204 P500.00 R1000.00 T500.00 ;Setup Print/Retract/Travel acceleration
M205 X8.00 Y8.00 Z0.40 E5.00 ;Setup Jerk
M220 S100 ;Reset Feedrate
M221 S100 ;Reset Flowrate

G28 ;Home

G92 E0 ;Reset Extruder
G1 Z2.0 F3000 ;Move Z Axis up
G1 X10.1 Y20 Z0.28 F5000.0 ;Move to start position
G1 X10.1 Y200.0 Z0.28 F1500.0 E15 ;Draw the first line
G1 X10.4 Y200.0 Z0.28 F5000.0 ;Move to side a little
G1 X10.4 Y20 Z0.28 F1500.0 E30 ;Draw the second line
G92 E0 ;Reset Extruder
G1 Z2.0 F3000 ;Move Z Axis up

G92 E0
G92 E0
G1 F1500 E-6.5
;LAYER_COUNT:100
;LAYER:0
M107
G0 F6000 X73.454 Y69.784 Z0.28
;TYPE:SKIRT
G1 F1500 E0
G1 F1200 X73.878 Y69.361 E0.02789
G1 X74.078 Y69.172 E0.0407
G1 X74.457 Y68.83 E0.06447
G1 X75.024 Y68.342 E0.09931
G1 X75.761 Y67.761 E0.14301
G1 X76.442 Y67.306 E0.18114
G1 X76.932 Y67.005 E0.20792
G1 X77.112 Y66.897 E0.21769
G1 X77.491 Y66.674 E0.23817
G1 X77.624 Y66.597 E0.24533
G1 X78.219 Y66.258 E0.27721
G1 X79.377 Y65.686 E0.33735
G1 X79.748 Y65.529 E0.35611
G1 X79.989 Y65.43 E0.36824
G1 X80.257 Y65.324 E0.38166
G1 X80.897 Y65.094 E0.41333
G1 X81.244 Y64.981 E0.43032
G1 X82.085 Y64.743 E0.47102
G1 X83.136 Y64.491 E0.52135
G1 X83.62 Y64.387 E0.5444
G1 X84.004 Y64.313 E0.56261
G1 X84.848 Y64.184 E0.60237
G1 X85.06 Y64.16 E0.6123
G1 X85.448 Y64.123 E0.63045
G1 X85.939 Y64.085 E0.65338
G1 X86.148 Y64.071 E0.66314
G1 X86.869 Y64.029 E0.69676
G1 X87.155 Y64.016 E0.7101
G1 X87.466 Y64.006 E0.72459
G1 X87.82 Y64 E0.74107
G1 X131.525 Y64 E2.77616
G1 X131.731 Y64.002 E2.78575
G1 X133.224 Y64.03 E2.85528
G1 X133.614 Y64.044 E2.87346
G1 X133.835 Y64.056 E2.88376
G1 X134.426 Y64.104 E2.91137
G1 X134.822 Y64.147 E2.92992
G1 X135.124 Y64.184 E2.94409
G1 X135.607 Y64.25 E2.96679
G1 X136.164 Y64.341 E2.99307
G1 X136.444 Y64.394 E3.00634
G1 X136.956 Y64.504 E3.03072
G1 X137.805 Y64.707 E3.07137
G1 X138.726 Y64.969 E3.11596
G1 X138.939 Y65.04 E3.12641
G1 X139.194 Y65.129 E3.13899
G1 X139.424 Y65.212 E3.15037
G1 X139.68 Y65.308 E3.1631
G1 X140.276 Y65.54 E3.19288
G1 X141.062 Y65.882 E3.2328
G1 X141.394 Y66.042 E3.24996
G1 X141.9 Y66.302 E3.27645
G1 X142.459 Y66.608 E3.30612
G1 X143.301 Y67.12 E3.35201
G1 X143.859 Y67.494 E3.38329
G1 X144.794 Y68.195 E3.4377
G1 X145.241 Y68.569 E3.46484
G1 X145.548 Y68.835 E3.48376
G1 X145.914 Y69.165 E3.5067
G1 X146.807 Y70.069 E3.56587
G1 X147.012 Y70.302 E3.58032
G1 X147.23 Y70.559 E3.59602
G1 X147.421 Y70.79 E3.60997
G1 X147.952 Y71.486 E3.65074
G1 X148.137 Y71.75 E3.66575
G1 X148.417 Y72.17 E3.68925
G1 X148.745 Y72.687 E3.71776
G1 X149.214 Y73.5 E3.76147
G1 X149.611 Y74.349 E3.80511
G1 X149.806 Y74.852 E3.83023
G1 X150.038 Y75.496 E3.8621
G1 X150.155 Y75.839 E3.87898
G1 X150.393 Y76.575 E3.915
G1 X150.644 Y77.479 E3.95868
G1 X150.843 Y78.607 E4.01202
G1 X150.872 Y78.841 E4.023
G1 X150.928 Y79.417 E4.04994
G1 X150.963 Y79.911 E4.07301
G1 X150.99 Y80.534 E4.10204
G1 X150.999 Y81.177 E4.13199
G1 X151 Y81.331 E4.13916
G1 X151 Y102.702 E5.13428
G1 X150.999 Y102.858 E5.14154
G1 X150.989 Y103.563 E5.17437
G1 X150.98 Y103.868 E5.18858
G1 X150.961 Y104.321 E5.2097
G1 X150.953 Y104.481 E5.21715
G1 X150.855 Y106.22 E5.29826
G1 X150.783 Y108.718 E5.41462
G1 X150.783 Y111.244 E5.53225
G1 X150.855 Y113.808 E5.65168
G1 X150.977 Y116.093 E5.75823
G1 X150.992 Y116.537 E5.77892
G1 X150.999 Y117.072 E5.80383
G1 X151 Y117.216 E5.81054
G1 X151 Y138.37 E6.79556
G1 X150.998 Y138.576 E6.80515
G1 X150.974 Y139.859 E6.8649
G1 X150.917 Y140.795 E6.90857
G1 X150.814 Y141.532 E6.94322
G1 X150.741 Y141.953 E6.96312
G1 X150.669 Y142.33 E6.98099
G1 X150.572 Y142.793 E7.00301
G1 X150.341 Y143.701 E7.04664
G1 X150.183 Y144.187 E7.07044
G1 X150.081 Y144.477 E7.08475
G1 X149.87 Y145.028 E7.11223
G1 X149.639 Y145.587 E7.14039
G1 X149.101 Y146.706 E7.19821
G1 X148.98 Y146.925 E7.20986
G1 X148.729 Y147.357 E7.23312
G1 X148.61 Y147.551 E7.24372
G1 X148.184 Y148.193 E7.27959
G1 X147.964 Y148.501 E7.29722
G1 X147.264 Y149.381 E7.34958
G1 X146.713 Y150.006 E7.38838
G1 X146.479 Y150.264 E7.40459
G1 X146.339 Y150.413 E7.41411
G1 X145.388 Y151.311 E7.47502
G1 X144.906 Y151.715 E7.5043
G1 X144.618 Y151.949 E7.52158
G1 X144.425 Y152.1 E7.53299
G1 X143.423 Y152.798 E7.58986
G1 X143.081 Y153.009 E7.60857
G1 X142.737 Y153.212 E7.62717
G1 X142.369 Y153.421 E7.64687
G1 X142.218 Y153.506 E7.65494
G1 X141.657 Y153.813 E7.68472
G1 X140.815 Y154.227 E7.72841
G1 X140.188 Y154.481 E7.75991
G1 X139.135 Y154.87 E7.81218
G1 X138.07 Y155.203 E7.86414
G1 X137.089 Y155.456 E7.91131
G1 X136.172 Y155.652 E7.95498
G1 X135.55 Y155.738 E7.98422
G1 X134.183 Y155.889 E8.04826
G1 X133.747 Y155.929 E8.06864
G1 X133.278 Y155.962 E8.09054
G1 X132.669 Y155.988 E8.11892
G1 X131.929 Y155.999 E8.15338
G1 X131.766 Y156 E8.16097
G1 X88.207 Y156 E10.18926
G1 X88.05 Y155.999 E10.19657
G1 X87.07 Y155.985 E10.24221
G1 X86.581 Y155.967 E10.265
G1 X86.19 Y155.944 E10.28323
G1 X85.815 Y155.916 E10.30074
G1 X85.461 Y155.883 E10.3173
G1 X84.828 Y155.805 E10.347
G1 X84.098 Y155.694 E10.38138
G1 X83.758 Y155.637 E10.39743
G1 X83.259 Y155.545 E10.42106
G1 X82.028 Y155.244 E10.48007
G1 X81.578 Y155.106 E10.50199
G1 X81.274 Y155.007 E10.51687
G1 X80.843 Y154.861 E10.53806
G1 X80.646 Y154.793 E10.54777
G1 X79.971 Y154.55 E10.58117
G1 X79.103 Y154.195 E10.62484
G1 X78.623 Y153.96 E10.64972
G1 X78.321 Y153.803 E10.66557
G1 X77.998 Y153.628 E10.68268
G1 X77.689 Y153.454 E10.69919
G1 X77.533 Y153.364 E10.70758
G1 X76.979 Y153.04 E10.73746
G1 X76.22 Y152.554 E10.77943
G1 X75.759 Y152.231 E10.80564
G1 X75 Y151.648 E10.85021
G1 X74.77 Y151.455 E10.86419
G1 X74.418 Y151.147 E10.88597
G1 X74.196 Y150.944 E10.89997
G1 X73.246 Y149.959 E10.96369
G1 X72.757 Y149.385 E10.99881
G1 X72.477 Y149.044 E11.01935
G1 X72.112 Y148.579 E11.04688
G1 X71.565 Y147.817 E11.09056
G1 X71.102 Y147.043 E11.13255
G1 X71.003 Y146.861 E11.1422
G1 X70.774 Y146.415 E11.16554
G1 X70.65 Y146.16 E11.17875
G1 X70.528 Y145.902 E11.19204
G1 X70.423 Y145.671 E11.20385
G1 X70.34 Y145.485 E11.21334
G1 X70.113 Y144.96 E11.23997
G1 X69.778 Y144.084 E11.28364
G1 X69.606 Y143.518 E11.31119
G1 X69.547 Y143.304 E11.32152
G1 X69.352 Y142.472 E11.36131
G1 X69.26 Y141.997 E11.38384
G1 X69.137 Y141.216 E11.42066
G1 X69.107 Y140.966 E11.43238
G1 X69.031 Y139.886 E11.4828
G1 X69.002 Y138.505 E11.54712
G1 X69 Y138.274 E11.55787
G1 X69 Y117.298 E12.5346
G1 X69.001 Y117.142 E12.54187
G1 X69.011 Y116.435 E12.57479
G1 X69.02 Y116.131 E12.58895
G1 X69.041 Y115.629 E12.61235
G1 X69.049 Y115.468 E12.61986
G1 X69.142 Y113.828 E12.69634
G1 X69.213 Y111.275 E12.81527
G1 X69.213 Y108.751 E12.9328
G1 X69.141 Y106.242 E13.04967
G1 X69.03 Y104.044 E13.15215
G1 X69.018 Y103.672 E13.16948
G1 X69.002 Y102.709 E13.21433
G1 X69 Y102.526 E13.22285
G1 X69 Y81.354 E14.20871
G1 X69.001 Y81.186 E14.21653
G1 X69.011 Y80.533 E14.24694
G1 X69.038 Y79.915 E14.27575
G1 X69.065 Y79.538 E14.29335
G1 X69.092 Y79.229 E14.30779
G1 X69.117 Y78.979 E14.31949
G1 X69.288 Y77.857 E14.37234
G1 X69.352 Y77.546 E14.38712
G1 X69.434 Y77.176 E14.40477
G1 X69.539 Y76.742 E14.42556
G1 X69.799 Y75.841 E14.46923
G1 X70.029 Y75.216 E14.50024
G1 X70.258 Y74.648 E14.52875
G1 X70.741 Y73.609 E14.58211
G1 X70.988 Y73.143 E14.60666
G1 X71.462 Y72.334 E14.65032
G1 X71.886 Y71.723 E14.68495
G1 X72.219 Y71.276 E14.71091
G1 X72.445 Y70.983 E14.72814
G1 X72.838 Y70.491 E14.75746
G1 X73.454 Y69.784 E14.80112
G0 F6000 X73.756 Y70.047
G1 F1200 X74.153 Y69.652 E14.8272
G1 X74.353 Y69.463 E14.84002
G1 X74.718 Y69.133 E14.86293
G1 X75.285 Y68.645 E14.89776
G1 X76.009 Y68.075 E14.94067
G1 X76.652 Y67.647 E14.97664
G1 X77.142 Y67.346 E15.00341
G1 X77.315 Y67.242 E15.01281
G1 X77.694 Y67.019 E15.03329
G1 X77.822 Y66.945 E15.04017
G1 X78.417 Y66.606 E15.07206
G1 X79.533 Y66.054 E15.13003
G1 X79.904 Y65.897 E15.14879
G1 X80.136 Y65.802 E15.16047
G1 X80.404 Y65.696 E15.17389
G1 X81.021 Y65.474 E15.20442
G1 X81.368 Y65.361 E15.22141
G1 X82.178 Y65.132 E15.26061
G1 X83.229 Y64.88 E15.31093
G1 X83.695 Y64.78 E15.33313
G1 X84.079 Y64.706 E15.35134
G1 X84.893 Y64.581 E15.38968
G1 X85.105 Y64.557 E15.39962
G1 X85.479 Y64.522 E15.41711
G1 X85.97 Y64.484 E15.44004
G1 X86.172 Y64.47 E15.44947
G1 X86.893 Y64.428 E15.4831
G1 X87.168 Y64.415 E15.49592
G1 X87.479 Y64.405 E15.51041
G1 X87.82 Y64.4 E15.52629
G1 X131.525 Y64.4 E17.56138
G1 X131.724 Y64.402 E17.57064
G1 X133.217 Y64.43 E17.64018
G1 X133.593 Y64.444 E17.6577
G1 X133.814 Y64.456 E17.668
G1 X134.383 Y64.502 E17.69458
G1 X134.779 Y64.545 E17.71313
G1 X135.07 Y64.581 E17.72678
G1 X135.553 Y64.647 E17.74948
G1 X136.089 Y64.734 E17.77477
G1 X136.369 Y64.787 E17.78804
G1 X136.863 Y64.893 E17.81156
G1 X137.712 Y65.096 E17.85221
G1 X138.599 Y65.349 E17.89516
G1 X138.812 Y65.42 E17.90562
G1 X139.058 Y65.505 E17.91774
G1 X139.288 Y65.588 E17.92912
G1 X139.535 Y65.681 E17.94141
G1 X140.131 Y65.913 E17.97119
G1 X140.888 Y66.242 E18.00963
G1 X141.22 Y66.402 E18.02679
G1 X141.708 Y66.653 E18.05234
G1 X142.267 Y66.959 E18.08201
G1 X143.079 Y67.452 E18.12625
G1 X143.637 Y67.826 E18.15753
G1 X144.537 Y68.501 E18.20991
G1 X144.984 Y68.875 E18.23705
G1 X145.28 Y69.133 E18.25533
G1 X145.646 Y69.463 E18.27828
G1 X146.506 Y70.333 E18.33524
G1 X146.711 Y70.566 E18.34969
G1 X146.922 Y70.813 E18.36482
G1 X147.113 Y71.044 E18.37878
G1 X147.625 Y71.716 E18.41812
G1 X147.81 Y71.98 E18.43313
G1 X148.08 Y72.384 E18.45575
G1 X148.408 Y72.901 E18.48426
G1 X148.867 Y73.7 E18.52717
G1 X149.255 Y74.534 E18.57
G1 X149.43 Y74.987 E18.59261
G1 X149.662 Y75.631 E18.62449
G1 X149.775 Y75.963 E18.64082
G1 X150.013 Y76.699 E18.67684
G1 X150.258 Y77.586 E18.71969
G1 X150.447 Y78.656 E18.77028
G1 X150.476 Y78.89 E18.78126
G1 X150.529 Y79.445 E18.80722
G1 X150.564 Y79.939 E18.83028
G1 X150.59 Y80.54 E18.85829
G1 X150.599 Y81.183 E18.88824
G1 X150.6 Y81.331 E18.89513
G1 X150.6 Y102.702 E19.89025
G1 X150.599 Y102.852 E19.89724
G1 X150.589 Y103.557 E19.93007
G1 X150.581 Y103.851 E19.94376
G1 X150.562 Y104.304 E19.96487
G1 X150.554 Y104.459 E19.9721
G1 X150.456 Y106.187 E20.05269
G1 X150.383 Y108.742 E20.17171
G1 X150.383 Y111.255 E20.28873
G1 X150.454 Y113.801 E20.40733
G1 X150.578 Y116.114 E20.51519
G1 X150.592 Y116.542 E20.53513
G1 X150.599 Y117.077 E20.56004
G1 X150.6 Y117.216 E20.56651
G1 X150.6 Y138.37 E21.55153
G1 X150.598 Y138.568 E21.56075
G1 X150.574 Y139.851 E21.6205
G1 X150.517 Y140.77 E21.66338
G1 X150.42 Y141.464 E21.69601
G1 X150.347 Y141.885 E21.7159
G1 X150.278 Y142.248 E21.73311
G1 X150.181 Y142.711 E21.75514
G1 X149.953 Y143.603 E21.79801
G1 X149.806 Y144.054 E21.8201
G1 X149.704 Y144.344 E21.83441
G1 X149.5 Y144.875 E21.8609
G1 X149.269 Y145.434 E21.88906
G1 X148.751 Y146.512 E21.94475
G1 X148.63 Y146.731 E21.9564
G1 X148.388 Y147.147 E21.97881
G1 X148.269 Y147.341 E21.98941
G1 X147.859 Y147.96 E22.02398
G1 X147.639 Y148.268 E22.04161
G1 X146.964 Y149.117 E22.09211
G1 X146.413 Y149.742 E22.13091
G1 X146.187 Y149.99 E22.14653
G1 X146.047 Y150.139 E22.15605
G1 X145.131 Y151.005 E22.21475
G1 X144.649 Y151.409 E22.24404
G1 X144.372 Y151.633 E22.26062
G1 X144.179 Y151.784 E22.27203
G1 X143.213 Y152.457 E22.32686
G1 X142.871 Y152.668 E22.34557
G1 X142.54 Y152.864 E22.36348
G1 X142.172 Y153.073 E22.38319
G1 X142.026 Y153.155 E22.39098
G1 X141.465 Y153.462 E22.42076
G1 X140.639 Y153.868 E22.46362
G1 X140.049 Y154.106 E22.49324
G1 X138.996 Y154.495 E22.54551
G1 X137.97 Y154.816 E22.59557
G1 X136.989 Y155.069 E22.64275
G1 X136.088 Y155.26 E22.68563
G1 X135.506 Y155.341 E22.71299
G1 X134.139 Y155.492 E22.77703
G1 X133.719 Y155.53 E22.79667
G1 X133.25 Y155.563 E22.81856
G1 X132.664 Y155.588 E22.84588
G1 X131.924 Y155.599 E22.88034
G1 X131.766 Y155.6 E22.88769
G1 X88.207 Y155.6 E24.91598
G1 X88.056 Y155.599 E24.92301
G1 X87.076 Y155.585 E24.96865
G1 X86.605 Y155.568 E24.9906
G1 X86.214 Y155.545 E25.00884
G1 X85.852 Y155.517 E25.02574
G1 X85.498 Y155.484 E25.0423
G1 X84.889 Y155.41 E25.07086
G1 X84.159 Y155.299 E25.10525
G1 X83.83 Y155.243 E25.12079
G1 X83.331 Y155.151 E25.14441
G1 X82.145 Y154.861 E25.20127
G1 X81.695 Y154.723 E25.22318
G1 X81.402 Y154.629 E25.23751
G1 X80.971 Y154.483 E25.2587
G1 X80.782 Y154.416 E25.26804
G1 X80.107 Y154.173 E25.30144
G1 X79.255 Y153.824 E25.34432
G1 X78.808 Y153.605 E25.36749
G1 X78.506 Y153.448 E25.38334
G1 X78.194 Y153.279 E25.39987
G1 X77.885 Y153.105 E25.41638
G1 X77.735 Y153.019 E25.42443
G1 X77.181 Y152.695 E25.45431
G1 X76.45 Y152.226 E25.49476
G1 X75.989 Y151.903 E25.52097
G1 X75.257 Y151.342 E25.56391
G1 X75.027 Y151.149 E25.57789
G1 X74.688 Y150.852 E25.59888
G1 X74.466 Y150.649 E25.61288
G1 X73.55 Y149.7 E25.6743
G1 X73.061 Y149.126 E25.70941
G1 X72.792 Y148.797 E25.7292
G1 X72.427 Y148.332 E25.75673
G1 X71.89 Y147.584 E25.7996
G1 X71.453 Y146.852 E25.8393
G1 X71.354 Y146.67 E25.84895
G1 X71.133 Y146.241 E25.87142
G1 X71.009 Y145.986 E25.88462
G1 X70.892 Y145.736 E25.89747
G1 X70.787 Y145.505 E25.90929
G1 X70.708 Y145.326 E25.9184
G1 X70.481 Y144.801 E25.94503
G1 X70.152 Y143.941 E25.98791
G1 X69.991 Y143.411 E26.0137
G1 X69.932 Y143.197 E26.02404
G1 X69.744 Y142.396 E26.06235
G1 X69.652 Y141.921 E26.08488
G1 X69.535 Y141.168 E26.12036
G1 X69.505 Y140.918 E26.13209
G1 X69.431 Y139.878 E26.18064
G1 X69.402 Y138.497 E26.24496
G1 X69.4 Y138.274 E26.25534
G1 X69.4 Y117.298 E27.23207
G1 X69.401 Y117.148 E27.23906
G1 X69.411 Y116.441 E27.27198
G1 X69.419 Y116.148 E27.28563
G1 X69.44 Y115.646 E27.30902
G1 X69.448 Y115.491 E27.31625
G1 X69.542 Y113.828 E27.39381
G1 X69.613 Y111.286 E27.51222
G1 X69.613 Y108.775 E27.62915
G1 X69.538 Y106.165 E27.75073
G1 X69.43 Y104.024 E27.85055
G1 X69.417 Y103.665 E27.86728
G1 X69.401 Y102.702 E27.91212
G1 X69.4 Y102.526 E27.92032
G1 X69.4 Y81.354 E28.90618
G1 X69.401 Y81.192 E28.91372
G1 X69.411 Y80.539 E28.94413
G1 X69.437 Y79.944 E28.97186
G1 X69.464 Y79.567 E28.98946
G1 X69.49 Y79.269 E29.00339
G1 X69.515 Y79.019 E29.01509
G1 X69.68 Y77.937 E29.06605
G1 X69.744 Y77.626 E29.08084
G1 X69.823 Y77.27 E29.09782
G1 X69.928 Y76.836 E29.11861
G1 X70.183 Y75.952 E29.16145
G1 X70.4 Y75.365 E29.19059
G1 X70.629 Y74.797 E29.21911
G1 X71.094 Y73.797 E29.27046
G1 X71.341 Y73.331 E29.29502
G1 X71.807 Y72.537 E29.33789
G1 X72.207 Y71.962 E29.37051
G1 X72.54 Y71.515 E29.39646
G1 X72.758 Y71.232 E29.4131
G1 X73.151 Y70.74 E29.44242
G1 X73.756 Y70.047 E29.48525
G0 F6000 X74.058 Y70.31
G1 F1200 X74.427 Y69.943 E29.50949
G1 X74.627 Y69.754 E29.5223
G1 X74.979 Y69.436 E29.54439
G1 X75.546 Y68.948 E29.57922
G1 X76.256 Y68.39 E29.62127
G1 X76.861 Y67.988 E29.65509
G1 X77.351 Y67.687 E29.68187
G1 X77.517 Y67.587 E29.6909
G1 X77.896 Y67.364 E29.71137
G1 X78.02 Y67.293 E29.71803
G1 X78.615 Y66.954 E29.74991
G1 X79.689 Y66.422 E29.80572
G1 X80.06 Y66.265 E29.82448
G1 X80.283 Y66.174 E29.83569
G1 X80.551 Y66.068 E29.84911
G1 X81.145 Y65.854 E29.87851
G1 X81.492 Y65.741 E29.89551
G1 X82.272 Y65.521 E29.93324
G1 X83.323 Y65.269 E29.98357
G1 X83.771 Y65.172 E30.00491
G1 X84.155 Y65.098 E30.02312
G1 X84.938 Y64.979 E30.06
G1 X85.15 Y64.955 E30.06994
G1 X85.51 Y64.92 E30.08678
G1 X86.001 Y64.882 E30.10971
G1 X86.195 Y64.869 E30.11876
G1 X86.916 Y64.827 E30.15239
G1 X87.181 Y64.815 E30.16475
G1 X87.492 Y64.805 E30.17924
G1 X87.82 Y64.8 E30.19451
G1 X131.525 Y64.8 E32.2296
G1 X131.716 Y64.802 E32.23849
G1 X133.209 Y64.83 E32.30802
G1 X133.571 Y64.843 E32.32489
G1 X133.792 Y64.855 E32.3352
G1 X134.34 Y64.9 E32.3608
G1 X134.736 Y64.943 E32.37935
G1 X135.016 Y64.977 E32.39248
G1 X135.499 Y65.043 E32.41518
G1 X136.015 Y65.127 E32.43953
G1 X136.295 Y65.18 E32.45279
G1 X136.77 Y65.282 E32.47542
G1 X137.619 Y65.485 E32.51606
G1 X138.473 Y65.728 E32.55741
G1 X138.686 Y65.799 E32.56786
G1 X138.922 Y65.882 E32.57951
G1 X139.152 Y65.965 E32.5909
G1 X139.39 Y66.054 E32.60273
G1 X139.986 Y66.286 E32.63251
G1 X140.714 Y66.602 E32.66946
G1 X141.046 Y66.762 E32.68663
