;FLAVOR:Marlin
;TIME:2271
;Filament used: 12.4683m
;Layer height: 3
;MINX:64
;MINY:54
;MINZ:0.28
;MAXX:156
;MAXY:166
;MAXZ:42.28
;Generated with Cura_SteamEngine 4.4.1
M140 S60
M105
M190 S60
M104 S210
M105
M109 S210
M82 ;absolute extrusion mode
M201 X500.00 Y500.00 Z100.00 E5000.00 ;Setup machine max acceleration
M203 X500.00 Y500.00 Z10.00 E50.00 ;Setup machine max feedrate
M204 P500.00 R1000.00 T500.00 ;Setup Print/Retract/Travel acceleration
M205 X8.00 Y8.00 Z0.40 E5.00 ;Setup Jerk
M220 S100 ;Reset Feedrate
M221 S100 ;Reset Flowrate

G28 ;Home

G92 E0 ;Reset Extruder
G1 Z2.0 F3000 ;Move Z Axis up
G1 X10.1 Y20 Z0.28 F5000.0 ;Move to start position
G1 X10.1 Y200.0 Z0.28 F1500.0 E15 ;Draw the first line
G1 X10.4 Y200.0 Z0.28 F5000.0 ;Move to side a little
G1 X10.4 Y20 Z0.28 F1500.0 E30 ;Draw the second line
G92 E0 ;Reset Extruder
G1 Z2.0 F3000 ;Move Z Axis up

G92 E0
G92 E0
G1 F1500 E-6.5
;LAYER_COUNT:15
;LAYER:0
M107
G0 F6000 X68.349 Y60.832 Z0.28
;TYPE:SKIRT
G1 F1500 E0
G1 F1200 X68.801 Y60.339 E0.03114
G1 X69.023 Y60.111 E0.04596
G1 X69.263 Y59.872 E0.06173
G1 X69.408 Y59.732 E0.07112
G1 X69.483 Y59.661 E0.07593
G1 X69.999 Y59.172 E0.10903
G1 X70.706 Y58.556 E0.15269
G1 X71.436 Y58.021 E0.19484
G1 X71.986 Y57.652 E0.22568
G1 X72.136 Y57.554 E0.23402
G1 X72.729 Y57.17 E0.26692
G1 X72.844 Y57.096 E0.27328
G1 X73.363 Y56.769 E0.30185
G1 X74.519 Y56.135 E0.36324
G1 X75.144 Y55.839 E0.39544
G1 X76.026 Y55.467 E0.44002
G1 X76.708 Y55.214 E0.47389
G1 X77.147 Y55.061 E0.49553
G1 X77.422 Y54.972 E0.50899
G1 X78.171 Y54.759 E0.54525
G1 X78.673 Y54.635 E0.56933
G1 X78.976 Y54.565 E0.58381
G1 X79.694 Y54.409 E0.61802
G1 X81.014 Y54.205 E0.68022
G1 X82.072 Y54.107 E0.72969
G1 X82.428 Y54.08 E0.74632
G1 X83.245 Y54.031 E0.78443
G1 X83.565 Y54.016 E0.79935
G1 X83.889 Y54.006 E0.81444
G1 X84.228 Y54.001 E0.83023
G1 X135.543 Y54 E3.21967
G1 X135.702 Y54.001 E3.22707
G1 X136.671 Y54.015 E3.2722
G1 X137.154 Y54.033 E3.2947
G1 X137.667 Y54.063 E3.31863
G1 X138.297 Y54.118 E3.34808
G1 X138.95 Y54.194 E3.37869
G1 X139.266 Y54.235 E3.39353
G1 X139.732 Y54.303 E3.41546
G1 X140.683 Y54.485 E3.46054
G1 X141.366 Y54.647 E3.49323
G1 X141.67 Y54.724 E3.50783
G1 X142.298 Y54.892 E3.5381
G1 X143.486 Y55.283 E3.59634
G1 X144.136 Y55.539 E3.62887
G1 X144.415 Y55.654 E3.64292
G1 X145.002 Y55.904 E3.67263
G1 X146.083 Y56.436 E3.72873
G1 X146.581 Y56.716 E3.75533
G1 X146.844 Y56.868 E3.76948
G1 X147.358 Y57.176 E3.79738
G1 X148.231 Y57.757 E3.84621
G1 X148.87 Y58.228 E3.88318
G1 X149.794 Y58.991 E3.93897
G1 X150.337 Y59.491 E3.97334
G1 X150.673 Y59.814 E3.99505
G1 X151.104 Y60.246 E4.02346
G1 X151.821 Y61.038 E4.07321
G1 X152.013 Y61.272 E4.0873
G1 X152.313 Y61.655 E4.10996
G1 X152.498 Y61.902 E4.12433
G1 X153.038 Y62.692 E4.16888
G1 X153.538 Y63.497 E4.21301
G1 X153.73 Y63.818 E4.23043
G1 X153.891 Y64.098 E4.24547
G1 X154.323 Y64.93 E4.28912
G1 X154.804 Y66.142 E4.34984
G1 X155.114 Y67.084 E4.39602
G1 X155.213 Y67.401 E4.41148
G1 X155.467 Y68.259 E4.45315
G1 X155.694 Y69.168 E4.49677
G1 X155.871 Y70.354 E4.55261
G1 X155.91 Y70.77 E4.57206
G1 X155.937 Y71.116 E4.58822
G1 X155.969 Y71.632 E4.6123
G1 X155.987 Y72.071 E4.63276
G1 X155.997 Y72.526 E4.65395
G1 X156 Y72.768 E4.66522
G1 X156 Y100.819 E5.97139
G1 X155.999 Y100.976 E5.9787
G1 X155.989 Y101.675 E6.01125
G1 X155.963 Y102.293 E6.04005
G1 X155.869 Y103.627 E6.10232
G1 X155.723 Y106.221 E6.2233
G1 X155.651 Y108.754 E6.3413
G1 X155.651 Y111.242 E6.45715
G1 X155.723 Y113.801 E6.57635
G1 X155.865 Y116.306 E6.69319
G1 X155.9 Y116.73 E6.713
G1 X155.916 Y116.941 E6.72285
G1 X155.97 Y117.807 E6.76325
G1 X155.985 Y118.127 E6.77817
G1 X155.993 Y118.368 E6.7894
G1 X155.999 Y118.733 E6.8064
G1 X156 Y146.812 E8.11387
G1 X155.998 Y147.006 E8.12291
G1 X155.976 Y148.253 E8.18098
G1 X155.874 Y149.57 E8.24249
G1 X155.808 Y150.046 E8.26486
G1 X155.727 Y150.544 E8.28836
G1 X155.591 Y151.276 E8.32303
G1 X155.38 Y152.19 E8.36671
G1 X155.177 Y152.847 E8.39873
G1 X154.966 Y153.46 E8.42891
G1 X154.867 Y153.735 E8.44252
G1 X154.684 Y154.224 E8.46683
G1 X154.318 Y155.088 E8.51053
G1 X153.967 Y155.766 E8.54608
G1 X153.556 Y156.496 E8.58509
G1 X153.149 Y157.163 E8.62147
G1 X153.001 Y157.387 E8.63397
G1 X152.411 Y158.196 E8.6806
G1 X151.862 Y158.882 E8.72151
G1 X151.622 Y159.173 E8.73907
G1 X151.38 Y159.455 E8.75638
G1 X150.482 Y160.384 E8.81654
G1 X149.979 Y160.847 E8.84837
G1 X149.712 Y161.085 E8.86503
G1 X149.429 Y161.329 E8.88243
G1 X148.413 Y162.107 E8.94202
G1 X148.057 Y162.348 E8.96203
G1 X147.704 Y162.577 E8.98163
G1 X147.076 Y162.968 E9.01607
G1 X146.957 Y163.041 E9.02257
G1 X146.41 Y163.372 E9.05234
G1 X145.587 Y163.823 E9.09604
G1 X144.858 Y164.151 E9.13327
G1 X144.002 Y164.499 E9.17629
G1 X143.727 Y164.607 E9.19005
G1 X143.08 Y164.85 E9.22223
G1 X141.963 Y165.202 E9.27677
G1 X141.452 Y165.334 E9.30134
G1 X141.129 Y165.413 E9.31683
G1 X140.559 Y165.542 E9.34404
G1 X139.385 Y165.741 E9.39948
G1 X138.932 Y165.793 E9.42072
G1 X138.715 Y165.816 E9.43088
G1 X137.955 Y165.888 E9.46642
G1 X137.782 Y165.903 E9.47451
G1 X137.236 Y165.946 E9.50001
G1 X136.582 Y165.978 E9.5305
G1 X135.534 Y165.998 E9.57931
G1 X135.324 Y166 E9.58909
G1 X84.457 Y166 E11.95767
G1 X84.303 Y165.999 E11.96484
G1 X83.445 Y165.987 E12.0048
G1 X83.178 Y165.98 E12.01723
G1 X82.917 Y165.97 E12.0294
G1 X82.601 Y165.953 E12.04413
G1 X82.333 Y165.935 E12.05664
G1 X81.979 Y165.906 E12.07318
G1 X81.437 Y165.852 E12.09854
G1 X80.698 Y165.753 E12.13326
G1 X79.898 Y165.618 E12.17104
G1 X79.537 Y165.551 E12.18813
G1 X78.976 Y165.437 E12.21479
G1 X77.741 Y165.11 E12.27428
G1 X77.198 Y164.932 E12.30089
G1 X76.856 Y164.813 E12.31775
G1 X76.579 Y164.712 E12.33148
G1 X76.44 Y164.661 E12.33837
G1 X76.061 Y164.517 E12.35725
G1 X75.92 Y164.462 E12.3643
G1 X75.258 Y164.2 E12.39745
G1 X74.401 Y163.818 E12.44114
G1 X73.647 Y163.404 E12.48119
G1 X73.107 Y163.08 E12.51052
G1 X72.949 Y162.984 E12.51913
G1 X72.636 Y162.789 E12.5363
G1 X72.501 Y162.703 E12.54375
G1 X71.94 Y162.342 E12.57481
G1 X71.196 Y161.819 E12.61716
G1 X70.951 Y161.631 E12.63154
G1 X70.713 Y161.443 E12.64566
G1 X70.463 Y161.24 E12.66066
G1 X69.811 Y160.667 E12.70108
G1 X69.455 Y160.328 E12.72397
G1 X69.192 Y160.069 E12.74116
G1 X69.029 Y159.903 E12.75199
G1 X68.423 Y159.233 E12.79405
G1 X68.294 Y159.078 E12.80344
G1 X67.947 Y158.639 E12.8295
G1 X67.474 Y158.008 E12.86622
G1 X67.327 Y157.807 E12.87782
G1 X66.946 Y157.274 E12.90832
G1 X66.434 Y156.488 E12.952
G1 X66.104 Y155.89 E12.98381
G1 X65.997 Y155.681 E12.99474
G1 X65.739 Y155.142 E13.02257
G1 X65.613 Y154.859 E13.03699
G1 X65.472 Y154.529 E13.0537
G1 X65.276 Y154.047 E13.07793
G1 X65.221 Y153.909 E13.08485
G1 X64.986 Y153.308 E13.1149
G1 X64.682 Y152.421 E13.15856
G1 X64.456 Y151.513 E13.20213
G1 X64.354 Y151.016 E13.22575
G1 X64.289 Y150.672 E13.24205
G1 X64.222 Y150.283 E13.26043
G1 X64.121 Y149.554 E13.2947
G1 X64.09 Y149.256 E13.30865
G1 X64.044 Y148.653 E13.33681
G1 X64.033 Y148.427 E13.34735
G1 X64.022 Y148.092 E13.36296
G1 X64.002 Y146.99 E13.41428
G1 X64 Y146.79 E13.42359
G1 X64 Y119.181 E14.70918
G1 X64.001 Y119.023 E14.71654
G1 X64.011 Y118.325 E14.74905
G1 X64.038 Y117.702 E14.77808
G1 X64.158 Y116.01 E14.85707
G1 X64.294 Y113.47 E14.97551
G1 X64.358 Y110.913 E15.09461
G1 X64.351 Y108.422 E15.2106
G1 X64.271 Y105.905 E15.32786
G1 X64.08 Y102.832 E15.47123
G1 X64.049 Y102.446 E15.48926
G1 X64.017 Y101.764 E15.52106
G1 X64.002 Y100.878 E15.56232
G1 X64 Y100.692 E15.57098
G1 X64 Y73.012 E16.85988
G1 X64.001 Y72.856 E16.86714
G1 X64.011 Y72.15 E16.90002
G1 X64.029 Y71.66 E16.92285
G1 X64.047 Y71.354 E16.93712
G1 X64.077 Y70.961 E16.95548
G1 X64.114 Y70.571 E16.97372
G1 X64.25 Y69.6 E17.01937
G1 X64.402 Y68.782 E17.05811
G1 X64.478 Y68.41 E17.07579
G1 X64.541 Y68.126 E17.08934
G1 X64.783 Y67.22 E17.13301
G1 X64.94 Y66.755 E17.15586
G1 X65.091 Y66.339 E17.17647
G1 X65.233 Y65.968 E17.19496
G1 X65.417 Y65.513 E17.21782
G1 X65.755 Y64.76 E17.25625
G1 X65.848 Y64.572 E17.26602
G1 X66.024 Y64.231 E17.28389
G1 X66.149 Y63.999 E17.29616
G1 X66.715 Y63.064 E17.34705
G1 X67.016 Y62.618 E17.3721
G1 X67.22 Y62.326 E17.38869
G1 X67.768 Y61.568 E17.43224
G1 X68.349 Y60.832 E17.47591
G0 F6000 X68.663 Y61.081
G1 F1200 X69.087 Y60.618 E17.50514
G1 X69.309 Y60.39 E17.51996
G1 X69.541 Y60.159 E17.5352
G1 X69.686 Y60.019 E17.54459
G1 X69.758 Y59.951 E17.5492
G1 X70.274 Y59.462 E17.5823
G1 X70.969 Y58.858 E17.62518
G1 X71.659 Y58.354 E17.66497
G1 X72.209 Y57.985 E17.69581
G1 X72.353 Y57.89 E17.70384
G1 X72.946 Y57.506 E17.73673
G1 X73.057 Y57.435 E17.74287
G1 X73.576 Y57.108 E17.77143
G1 X74.69 Y56.496 E17.83062
G1 X75.315 Y56.2 E17.86282
G1 X76.165 Y55.842 E17.90577
G1 X76.847 Y55.589 E17.93964
G1 X77.27 Y55.442 E17.96049
G1 X77.545 Y55.353 E17.97395
G1 X78.267 Y55.147 E18.00891
G1 X78.769 Y55.023 E18.03299
G1 X79.06 Y54.956 E18.04689
G1 X79.778 Y54.8 E18.08111
G1 X81.051 Y54.603 E18.14109
G1 X82.109 Y54.505 E18.19056
G1 X82.452 Y54.479 E18.20658
G1 X83.269 Y54.43 E18.24469
G1 X83.577 Y54.416 E18.25905
G1 X83.901 Y54.406 E18.27414
G1 X84.228 Y54.401 E18.28937
G1 X135.543 Y54.4 E20.67881
G1 X135.696 Y54.401 E20.68594
G1 X136.665 Y54.415 E20.73106
G1 X137.131 Y54.432 E20.75278
G1 X137.644 Y54.462 E20.7767
G1 X138.25 Y54.515 E20.80503
G1 X138.903 Y54.591 E20.83564
G1 X139.209 Y54.631 E20.85001
G1 X139.675 Y54.699 E20.87194
G1 X140.59 Y54.874 E20.91532
G1 X141.273 Y55.036 E20.948
G1 X141.566 Y55.11 E20.96208
G1 X142.194 Y55.278 E20.99235
G1 X143.339 Y55.655 E21.04848
G1 X143.989 Y55.911 E21.08101
G1 X144.258 Y56.022 E21.09456
G1 X144.845 Y56.272 E21.12427
G1 X145.887 Y56.784 E21.17833
G1 X146.385 Y57.064 E21.20493
G1 X146.638 Y57.211 E21.21856
G1 X147.152 Y57.519 E21.24646
G1 X147.993 Y58.079 E21.29351
G1 X148.632 Y58.55 E21.33047
G1 X149.523 Y59.285 E21.38425
G1 X150.066 Y59.785 E21.41862
G1 X150.39 Y60.096 E21.43954
G1 X150.821 Y60.528 E21.46795
G1 X151.512 Y61.291 E21.51588
G1 X151.704 Y61.525 E21.52998
G1 X151.993 Y61.894 E21.5518
G1 X152.178 Y62.141 E21.56617
G1 X152.698 Y62.903 E21.60913
G1 X153.198 Y63.708 E21.65325
G1 X153.383 Y64.017 E21.67002
G1 X153.544 Y64.297 E21.68506
G1 X153.968 Y65.115 E21.72797
G1 X154.424 Y66.267 E21.78566
G1 X154.734 Y67.209 E21.83184
G1 X154.829 Y67.514 E21.84671
G1 X155.083 Y68.372 E21.88838
G1 X155.306 Y69.265 E21.93124
G1 X155.473 Y70.392 E21.98429
G1 X155.512 Y70.808 E22.00374
G1 X155.538 Y71.141 E22.0193
G1 X155.57 Y71.657 E22.04337
G1 X155.587 Y72.08 E22.06308
G1 X155.597 Y72.535 E22.08427
G1 X155.6 Y72.768 E22.09512
G1 X155.6 Y100.819 E23.4013
G1 X155.599 Y100.971 E23.40837
G1 X155.589 Y101.67 E23.44092
G1 X155.564 Y102.265 E23.46866
G1 X155.464 Y103.68 E23.53471
G1 X155.323 Y106.188 E23.65168
G1 X155.251 Y108.743 E23.77069
G1 X155.251 Y111.253 E23.88757
G1 X155.323 Y113.799 E24.00617
G1 X155.466 Y116.324 E24.12393
G1 X155.502 Y116.763 E24.14444
G1 X155.516 Y116.966 E24.15392
G1 X155.57 Y117.832 E24.19432
G1 X155.585 Y118.14 E24.20868
G1 X155.593 Y118.381 E24.21991
G1 X155.599 Y118.733 E24.2363
G1 X155.6 Y146.812 E25.54378
G1 X155.598 Y146.999 E25.55248
G1 X155.576 Y148.246 E25.61056
G1 X155.478 Y149.515 E25.66983
G1 X155.412 Y149.991 E25.6922
G1 X155.334 Y150.471 E25.71485
G1 X155.198 Y151.203 E25.74951
G1 X154.99 Y152.1 E25.79239
G1 X154.799 Y152.717 E25.82247
G1 X154.588 Y153.33 E25.85265
G1 X154.493 Y153.595 E25.86576
G1 X154.31 Y154.084 E25.89007
G1 X153.95 Y154.932 E25.93297
G1 X153.619 Y155.569 E25.9664
G1 X153.208 Y156.299 E26.00541
G1 X152.815 Y156.942 E26.0405
G1 X152.667 Y157.166 E26.053
G1 X152.099 Y157.946 E26.09793
G1 X151.55 Y158.632 E26.13884
G1 X151.318 Y158.912 E26.15577
G1 X151.076 Y159.194 E26.17308
G1 X150.211 Y160.09 E26.23107
G1 X149.708 Y160.553 E26.2629
G1 X149.451 Y160.782 E26.27893
G1 X149.168 Y161.026 E26.29633
G1 X148.188 Y161.776 E26.35379
G1 X147.832 Y162.017 E26.37381
G1 X147.493 Y162.237 E26.39263
G1 X146.865 Y162.628 E26.42708
G1 X146.75 Y162.699 E26.43337
G1 X146.203 Y163.03 E26.46314
G1 X145.395 Y163.472 E26.50602
G1 X144.707 Y163.781 E26.54114
G1 X143.851 Y164.129 E26.58417
G1 X143.586 Y164.232 E26.59741
G1 X142.939 Y164.475 E26.62959
G1 X141.863 Y164.815 E26.68214
G1 X141.352 Y164.947 E26.70671
G1 X141.041 Y165.023 E26.72162
G1 X140.471 Y165.152 E26.74883
G1 X139.34 Y165.344 E26.80225
G1 X138.887 Y165.396 E26.82348
G1 X138.678 Y165.418 E26.83327
G1 X137.918 Y165.49 E26.86881
G1 X137.75 Y165.504 E26.87666
G1 X137.204 Y165.547 E26.90217
G1 X136.574 Y165.578 E26.93154
G1 X135.526 Y165.598 E26.98035
G1 X135.324 Y165.6 E26.98975
G1 X84.457 Y165.6 E29.35833
G1 X84.309 Y165.599 E29.36522
G1 X83.451 Y165.587 E29.40518
G1 X83.193 Y165.58 E29.4172
G1 X82.932 Y165.57 E29.42936
G1 X82.628 Y165.554 E29.44354
G1 X82.36 Y165.536 E29.45604
G1 X82.019 Y165.508 E29.47198
G1 X81.477 Y165.454 E29.49734
G1 X80.764 Y165.358 E29.53084
G1 X79.964 Y165.223 E29.56862
G1 X79.617 Y165.159 E29.58505
G1 X79.056 Y165.045 E29.6117
G1 X77.865 Y164.73 E29.66907
G1 X77.322 Y164.552 E29.69568
G1 X76.993 Y164.438 E29.71189
G1 X76.716 Y164.337 E29.72562
G1 X76.582 Y164.287 E29.73228
G1 X76.203 Y164.143 E29.75116
G1 X76.067 Y164.09 E29.75795
G1 X75.405 Y163.828 E29.7911
G1 X74.565 Y163.453 E29.83394
G1 X73.852 Y163.061 E29.87183
G1 X73.312 Y162.737 E29.90115
G1 X73.161 Y162.645 E29.90938
G1 X72.848 Y162.45 E29.92655
G1 X72.717 Y162.367 E29.93378
G1 X72.156 Y162.006 E29.96484
G1 X71.439 Y161.501 E30.00568
G1 X71.194 Y161.313 E30.02006
G1 X70.965 Y161.133 E30.03362
G1 X70.715 Y160.93 E30.04861
G1 X70.087 Y160.377 E30.08758
G1 X69.731 Y160.038 E30.11047
G1 X69.478 Y159.789 E30.127
G1 X69.315 Y159.623 E30.13783
G1 X68.731 Y158.977 E30.17838
G1 X68.602 Y158.822 E30.18777
G1 X68.267 Y158.399 E30.2129
G1 X67.794 Y157.768 E30.24962
G1 X67.653 Y157.574 E30.26078
G1 X67.272 Y157.041 E30.29129
G1 X66.769 Y156.27 E30.33416
G1 X66.46 Y155.708 E30.36402
G1 X66.353 Y155.499 E30.37495
G1 X66.104 Y154.979 E30.4018
G1 X65.978 Y154.696 E30.41623
G1 X65.843 Y154.378 E30.43231
G1 X65.647 Y153.896 E30.45654
G1 X65.594 Y153.763 E30.46321
G1 X65.359 Y153.162 E30.49326
G1 X65.061 Y152.291 E30.53612
G1 X64.847 Y151.433 E30.5773
G1 X64.745 Y150.936 E30.60092
G1 X64.683 Y150.604 E30.61665
G1 X64.616 Y150.215 E30.63503
G1 X64.519 Y149.513 E30.66803
G1 X64.488 Y149.215 E30.68198
G1 X64.444 Y148.633 E30.70916
G1 X64.433 Y148.407 E30.71969
G1 X64.422 Y148.084 E30.73474
G1 X64.402 Y146.982 E30.78606
G1 X64.4 Y146.79 E30.795
G1 X64.4 Y119.181 E32.08059
G1 X64.401 Y119.029 E32.08767
G1 X64.411 Y118.331 E32.12018
G1 X64.437 Y117.73 E32.14819
G1 X64.556 Y116.059 E32.22619
G1 X64.695 Y113.466 E32.34711
G1 X64.758 Y110.922 E32.4656
G1 X64.75 Y108.409 E32.58262
G1 X64.67 Y105.866 E32.70109
G1 X64.481 Y102.838 E32.84236
G1 X64.448 Y102.415 E32.86212
G1 X64.417 Y101.757 E32.89279
G1 X64.402 Y100.871 E32.93405
G1 X64.4 Y100.692 E32.94239
G1 X64.4 Y73.012 E34.23129
G1 X64.401 Y72.862 E34.23827
G1 X64.411 Y72.156 E34.27115
G1 X64.428 Y71.684 E34.29314
G1 X64.446 Y71.378 E34.30742
G1 X64.475 Y70.999 E34.32511
G1 X64.512 Y70.609 E34.34336
G1 X64.643 Y69.673 E34.38737
G1 X64.795 Y68.855 E34.42611
G1 X64.869 Y68.496 E34.44317
G1 X64.932 Y68.212 E34.45672
G1 X65.316 Y66.891 E34.52078
G1 X65.467 Y66.475 E34.54139
G1 X65.604 Y66.118 E34.55919
G1 X65.788 Y65.663 E34.58204
G1 X66.114 Y64.937 E34.6191
G1 X66.207 Y64.749 E34.62887
G1 X66.376 Y64.421 E34.64605
G1 X66.501 Y64.189 E34.65832
G1 X67.047 Y63.287 E34.70742
G1 X67.348 Y62.841 E34.73247
G1 X67.544 Y62.561 E34.74839
G1 X68.092 Y61.803 E34.79194
G1 X68.663 Y61.081 E34.8348
G0 F6000 X68.977 Y61.329
G1 F1200 X69.374 Y60.897 E34.86212
G1 X69.596 Y60.669 E34.87694
G1 X69.819 Y60.447 E34.89159
G1 X69.964 Y60.307 E34.90098
G1 X70.033 Y60.241 E34.90542
G1 X70.549 Y59.752 E34.93853
G1 X71.231 Y59.161 E34.98055
G1 X71.882 Y58.686 E35.01807
G1 X72.432 Y58.317 E35.04891
G1 X72.571 Y58.225 E35.05667
G1 X73.164 Y57.841 E35.08957
G1 X73.271 Y57.773 E35.09547
G1 X73.79 Y57.446 E35.12404
G1 X74.861 Y56.858 E35.18093
G1 X75.486 Y56.562 E35.21313
G1 X76.304 Y56.217 E35.25447
G1 X76.986 Y55.964 E35.28834
G1 X77.393 Y55.823 E35.3084
G1 X77.668 Y55.734 E35.32186
G1 X78.363 Y55.536 E35.35551
G1 X78.865 Y55.412 E35.37958
